X: 40410
T: Tom McElvogue's
R: reel
M: 4/4
K: Dmajor
D2 F/E/D Adcd|ABdB AFEF|D2FD ADFD|EA, A,/A,/A, EGFE|
DE F/E/D Adcd|ABdB A2de|faeg fdef|1 dBAG FAEF:|2 dBAG FABc||
|:dA B/B/A fA B/B/A|dA B/B/A fAdA|Bgfg efed|ce f/f/e Aceg|
fddB AFFE|DF F/F/F ABdB|B2AB GAFD|1 EGFE FABc:|2 EGFE FDEF||

